icons/Color/24/dialog-warning.svg

<svg enable-background="new 0 0 139 139" height="24" viewBox="0 0 26.0625 26.0625" width="24" xmlns="http://www.w3.org/2000/svg"><g transform="matrix(1.0845755 0 0 1.0859678 .016204 8.68702)"><path d="m.000008-7.999335h23.999331v23.999331h-23.999331z" fill="none" stroke-width=".299992"/><path d="m23.285155 13.001741-9.933244-19.5734978c-.285517-.5437038-.802143-.8457691-1.377504-.8457691-.57536 0-1.094642.3624808-1.384486.9061845l-9.85927261 19.5734974c-.23208287.483288-.23472746 1.147823.0510109 1.631123.28576041.4833.74507961.724938 1.32045121.724938h19.7925165c.575361 0 1.094399-.302054 1.326471-.785354.289611-.4833.292024-1.087419.06407-1.631122z" fill="#f57900" stroke="#f57900" stroke-width="1.134717"/><path d="m21.814395 12.231872-8.940108-17.6502606c-.38073-.7625991-.319916-1.0072725-.898552-1.0072725-.497683 0-.560685.3563402-.920326 1.0761746l-8.8408773 17.6359905c-.5133663.993087-.81511 1.356397-.5679993 1.793494.2470875.437096.6137082.308863 1.7859707.337368h17.3762039c1.091366.01428 1.337204.03076 1.538004-.406259.250572-.437109-.05336-.888317-.532316-1.779235z" fill="#f57900" opacity=".99" stroke="#fff" stroke-width="1.148627"/><path d="m23.891356 40.069328c-1.728839 0-3.058716-1.702516-3.058716-3.569131 0-2.010201 1.196889-3.569131 3.058716-3.569131s2.925728 1.55893 3.058716 3.569131c0 1.866615-1.196889 3.569131-3.058716 3.569131zm-.973963-10.673081-1.68579-14.310837h5.319506l-1.68579 16.669612z" fill="#121312" transform="matrix(.65469027 0 0 .56034483 -3.64131 -9.452562)"/></g></svg>

<?xml version="1.0" encoding="UTF-8" standalone="no"?>
<!-- Generator: Adobe Illustrator 12.0.0, SVG Export Plug-In . SVG Version: 6.00 Build 51448)  -->

<svg
   xmlns:dc="http://purl.org/dc/elements/1.1/"
   xmlns:cc="http://creativecommons.org/ns#"
   xmlns:rdf="http://www.w3.org/1999/02/22-rdf-syntax-ns#"
   xmlns:svg="http://www.w3.org/2000/svg"
   xmlns="http://www.w3.org/2000/svg"
   xmlns:sodipodi="http://sodipodi.sourceforge.net/DTD/sodipodi-0.dtd"
   xmlns:inkscape="http://www.inkscape.org/namespaces/inkscape"
   version="1.0"
   id=""
   width="24"
   height="24"
   viewBox="0 0 26.0625 26.0625"
   overflow="visible"
   enable-background="new 0 0 139 139"
   xml:space="preserve"
   sodipodi:version="0.32"
   inkscape:version="0.92pre1 unknown"
   sodipodi:docname="gimp-warning.svg"
   inkscape:output_extension="org.inkscape.output.svgz.inkscape"
   style="overflow:visible"><metadata
     id="metadata3164"><rdf:RDF><cc:Work
         rdf:about=""><dc:format>image/svg+xml</dc:format><dc:type
           rdf:resource="http://purl.org/dc/dcmitype/StillImage" /><dc:title></dc:title></cc:Work></rdf:RDF></metadata><defs
     id="defs3162" /><sodipodi:namedview
     inkscape:window-height="1016"
     inkscape:window-width="1920"
     inkscape:pageshadow="2"
     inkscape:pageopacity="0.0"
     guidetolerance="10.0"
     gridtolerance="10.0"
     objecttolerance="10.0"
     borderopacity="1.0"
     bordercolor="#666666"
     pagecolor="#ffffff"
     id="base"
     inkscape:zoom="26.454421"
     inkscape:cx="15.026332"
     inkscape:cy="13.522112"
     inkscape:window-x="0"
     inkscape:window-y="27"
     inkscape:current-layer=""
     height="128px"
     width="128px"
     showgrid="true"
     inkscape:window-maximized="1"
     showguides="false"
     inkscape:snap-global="false"><inkscape:grid
       type="xygrid"
       id="grid4234" /></sodipodi:namedview><g
     id="g4240"
     transform="matrix(1.0845755,0,0,1.0859678,0.0162043,8.6870199)"><rect
       style="fill:none;stroke-width:0.29999164"
       y="-7.9993348"
       x="7.7556515e-06"
       height="23.999331"
       width="23.999331"
       id="rect6639-9" /><path
       style="fill:#f57900;fill-opacity:1;fill-rule:nonzero;stroke:#f57900;stroke-width:1.13471687;stroke-miterlimit:4;stroke-dasharray:none;stroke-opacity:1"
       d="M 23.285155,13.001741 13.351911,-6.5717568 c -0.285517,-0.5437038 -0.802143,-0.8457691 -1.377504,-0.8457691 -0.57536,0 -1.094642,0.3624808 -1.384486,0.9061845 L 0.73064839,13.062156 c -0.23208287,0.483288 -0.23472746,1.147823 0.0510109,1.631123 0.28576041,0.4833 0.74507961,0.724938 1.32045121,0.724938 H 21.894627 c 0.575361,0 1.094399,-0.302054 1.326471,-0.785354 0.289611,-0.4833 0.292024,-1.087419 0.06407,-1.631122 z"
       id="path10109"
       inkscape:connector-curvature="0" /><path
       style="opacity:0.99;fill:#f57900;fill-opacity:1;fill-rule:nonzero;stroke:#ffffff;stroke-width:1.1486274;stroke-miterlimit:4;stroke-dasharray:none;stroke-opacity:1"
       d="M 21.814395,12.231872 12.874287,-5.4183886 c -0.38073,-0.7625991 -0.319916,-1.0072725 -0.898552,-1.0072725 -0.497683,0 -0.560685,0.3563402 -0.920326,1.0761746 L 2.2145317,12.286504 c -0.5133663,0.993087 -0.81511,1.356397 -0.5679993,1.793494 0.2470875,0.437096 0.6137082,0.308863 1.7859707,0.337368 H 20.808707 c 1.091366,0.01428 1.337204,0.03076 1.538004,-0.406259 0.250572,-0.437109 -0.05336,-0.888317 -0.532316,-1.779235 z"
       id="path1325"
       inkscape:connector-curvature="0" /><g
       style="fill:#121312;fill-opacity:1;fill-rule:nonzero;stroke:#000000;stroke-width:1.76948965;stroke-miterlimit:4"
       transform="matrix(0.65469027,0,0,0.56034483,-3.6413098,-9.4525615)"
       id="g10114"><path
         style="fill:#121312;fill-opacity:1;stroke:none;stroke-width:2.44517136"
         d="m 23.891356,40.069328 c -1.728839,0 -3.058716,-1.702516 -3.058716,-3.569131 0,-2.010201 1.196889,-3.569131 3.058716,-3.569131 1.861827,0 2.925728,1.55893 3.058716,3.569131 0,1.866615 -1.196889,3.569131 -3.058716,3.569131 z M 22.917393,29.396247 21.231603,15.08541 h 5.319506 l -1.68579,16.669612 z"
         id="path10116"
         inkscape:connector-curvature="0"
         sodipodi:nodetypes="ssscsccccc" /></g></g></svg>
